src/Assets/icon/icon_wormhole.svg

<svg fill="none" height="636" viewBox="0 0 636 636" width="636" xmlns="http://www.w3.org/2000/svg"><g fill="#fff"><path d="m317.941 635.108c-84.205-.054-164.95-33.508-224.5184-93.023-59.5685-59.515-93.095644-140.23-93.22509-224.435.129427-84.209 33.65469-164.927 93.22209-224.449 59.5674-59.5216 140.3124-92.985494 224.5214-93.050121 84.208.064627 164.953 33.528521 224.52 93.050121 59.567 59.522 93.093 140.24 93.222 224.449-.129 84.205-33.655 164.92-93.224 224.435s-140.313 92.969-224.518 93.023zm0-610.5153c-77.73.0538-152.264 30.9392-207.25 85.8793-54.9862 54.94-85.933 129.449-86.0517 207.178.0756 77.739 31.0102 152.268 86.0067 207.211 54.997 54.943 129.556 85.805 207.295 85.805s152.298-30.862 207.295-85.805c54.996-54.943 85.93-129.472 86.005-207.211-.118-77.729-31.065-152.238-86.051-207.178-54.986-54.9401-129.52-85.8255-207.249-85.8793z"/><path d="m358.113 584.878c-69.764-.054-136.657-27.777-186.006-77.088s-77.1241-116.183-77.232-185.946c.1079-69.763 27.883-136.635 77.232-185.946 49.349-49.3115 116.242-77.0348 186.006-77.0887 69.763.0539 136.656 27.7772 186.005 77.0887 49.349 49.311 77.124 116.183 77.232 185.946-.108 69.763-27.883 136.635-77.232 185.946s-116.242 77.034-186.005 77.088zm0-507.0854c-64.725.0539-126.786 25.7784-172.569 71.5304s-71.548 107.796-71.645 172.521c.107 64.718 25.879 126.751 71.66 172.494 45.782 45.744 107.836 71.462 172.554 71.516 64.717-.054 126.772-25.772 172.553-71.516 45.782-45.743 71.553-107.776 71.661-172.494-.108-64.718-25.879-126.751-71.661-172.495-45.781-45.743-107.836-71.4618-172.553-71.5156z"/><path d="m398.271 534.692c-55.318-.043-108.36-22.027-147.491-61.127-39.131-39.101-61.156-92.126-61.242-147.443.086-55.318 22.111-108.343 61.242-147.444 39.131-39.1 92.173-61.083 147.491-61.126 55.321.032 108.368 22.011 147.502 61.114 39.133 39.103 61.154 92.134 61.23 147.456-.087 55.317-22.111 108.342-61.242 147.443-39.131 39.1-92.172 61.084-147.49 61.127zm0-403.575c-51.724.032-101.323 20.582-137.912 57.141s-57.181 86.14-57.257 137.864c.087 51.716 20.684 101.287 57.272 137.837s86.18 57.094 137.897 57.126c51.716-.032 101.308-20.576 137.897-57.126 36.588-36.55 57.185-86.121 57.271-137.837-.075-51.724-20.668-101.305-57.258-137.864-36.589-36.559-86.187-57.109-137.91-57.141z"/><path d="m438.442 484.462c-40.872-.032-80.063-16.274-108.976-45.164s-45.186-68.069-45.251-108.941c.054-40.88 16.323-80.069 45.237-108.967 28.914-28.899 68.111-45.147 108.99-45.179 40.88.032 80.078 16.28 108.992 45.179 28.914 28.898 45.182 68.087 45.236 108.967-.065 40.872-16.337 80.051-45.25 108.941s-68.105 45.132-108.978 45.164zm0-300.104c-38.718.032-75.843 15.422-103.229 42.792-27.386 27.371-42.796 64.488-42.85 103.207.064 38.712 15.479 75.817 42.864 103.179s64.504 42.747 103.215 42.779c38.712-.032 75.831-15.417 103.216-42.779s42.8-64.467 42.864-103.179c-.054-38.719-15.462-75.836-42.848-103.207-27.386-27.37-64.513-42.76-103.232-42.792z"/></g></svg>

<svg width="636" height="636" viewBox="0 0 636 636" fill="none" xmlns="http://www.w3.org/2000/svg">
<path d="M317.941 635.108C233.736 635.054 152.991 601.6 93.4226 542.085C33.8541 482.57 0.326956 401.855 0.19751 317.65C0.326937 233.441 33.8522 152.723 93.4196 93.201C152.987 33.6794 233.732 0.215506 317.941 0.150879C402.149 0.215506 482.894 33.6794 542.461 93.201C602.028 152.723 635.554 233.441 635.683 317.65C635.554 401.855 602.028 482.57 542.459 542.085C482.89 601.6 402.146 635.054 317.941 635.108ZM317.941 24.5927C240.211 24.6465 165.677 55.5319 110.691 110.472C55.7048 165.412 24.758 239.921 24.6393 317.65C24.7149 395.389 55.6495 469.918 110.646 524.861C165.643 579.804 240.202 610.666 317.941 610.666C395.68 610.666 470.239 579.804 525.236 524.861C580.232 469.918 611.166 395.389 611.241 317.65C611.123 239.921 580.176 165.412 525.19 110.472C470.204 55.5319 395.67 24.6465 317.941 24.5927V24.5927Z" fill="white"/>
<path d="M358.113 584.878C288.349 584.824 221.456 557.101 172.107 507.79C122.758 458.479 94.9829 391.607 94.875 321.844C94.9829 252.081 122.758 185.209 172.107 135.898C221.456 86.5865 288.349 58.8632 358.113 58.8093C427.876 58.8632 494.769 86.5865 544.118 135.898C593.467 185.209 621.242 252.081 621.35 321.844C621.242 391.607 593.467 458.479 544.118 507.79C494.769 557.101 427.876 584.824 358.113 584.878ZM358.113 77.7926C293.388 77.8465 231.327 103.571 185.544 149.323C139.761 195.075 113.996 257.119 113.899 321.844C114.006 386.562 139.778 448.595 185.559 494.338C231.341 540.082 293.395 565.8 358.113 565.854C422.83 565.8 484.885 540.082 530.666 494.338C576.448 448.595 602.219 386.562 602.327 321.844C602.219 257.126 576.448 195.093 530.666 149.349C484.885 103.606 422.83 77.8872 358.113 77.8334V77.7926Z" fill="white"/>
<path d="M398.271 534.692C342.953 534.649 289.911 512.665 250.78 473.565C211.649 434.464 189.624 381.439 189.538 326.122C189.624 270.804 211.649 217.779 250.78 178.678C289.911 139.578 342.953 117.595 398.271 117.552C453.592 117.584 506.639 139.563 545.773 178.666C584.906 217.769 606.927 270.8 607.003 326.122C606.916 381.439 584.892 434.464 545.761 473.565C506.63 512.665 453.589 534.649 398.271 534.692V534.692ZM398.271 131.117C346.547 131.149 296.948 151.699 260.359 188.258C223.77 224.817 203.178 274.398 203.102 326.122C203.189 377.838 223.786 427.409 260.374 463.959C296.962 500.509 346.554 521.053 398.271 521.085C449.987 521.053 499.579 500.509 536.168 463.959C572.756 427.409 593.353 377.838 593.439 326.122C593.364 274.398 572.771 224.817 536.181 188.258C499.592 151.699 449.994 131.149 398.271 131.117V131.117Z" fill="white"/>
<path d="M438.442 484.462C397.57 484.43 358.379 468.188 329.466 439.298C300.553 410.408 284.28 371.229 284.215 330.357C284.269 289.477 300.538 250.288 329.452 221.39C358.366 192.491 397.563 176.243 438.442 176.211C479.322 176.243 518.52 192.491 547.434 221.39C576.348 250.288 592.616 289.477 592.67 330.357C592.605 371.229 576.333 410.408 547.42 439.298C518.507 468.188 479.315 484.43 438.442 484.462V484.462ZM438.442 184.358C399.724 184.39 362.599 199.78 335.213 227.15C307.827 254.521 292.417 291.638 292.363 330.357C292.427 369.069 307.842 406.174 335.227 433.536C362.612 460.898 399.731 476.283 438.442 476.315C477.154 476.283 514.273 460.898 541.658 433.536C569.043 406.174 584.458 369.069 584.522 330.357C584.468 291.638 569.06 254.521 541.674 227.15C514.288 199.78 477.161 184.39 438.442 184.358Z" fill="white"/>
</svg>
